contributed-vectors/wordweb.svg

<?xml version="1.0" encoding="UTF-8" standalone="no"?>
<svg
   xmlns:dc="http://purl.org/dc/elements/1.1/"
   xmlns:cc="http://creativecommons.org/ns#"
   xmlns:rdf="http://www.w3.org/1999/02/22-rdf-syntax-ns#"
   xmlns:svg="http://www.w3.org/2000/svg"
   xmlns="http://www.w3.org/2000/svg"
   xmlns:sodipodi="http://sodipodi.sourceforge.net/DTD/sodipodi-0.dtd"
   xmlns:inkscape="http://www.inkscape.org/namespaces/inkscape"
   sodipodi:docname="wordweb.svg"
   inkscape:version="1.0.1 (3bc2e813f5, 2020-09-07)"
   version="1.1"
   id="svg2"
   viewBox="0 0 192 192"
   height="192"
   width="192"
   inkscape:export-filename="/home/jphilippe/inkscape/icônes/delta-github/png/wordweb.png"
   inkscape:export-xdpi="96"
   inkscape:export-ydpi="96">
  <sodipodi:namedview
     inkscape:document-rotation="0"
     inkscape:window-maximized="1"
     inkscape:window-y="30"
     inkscape:window-x="1920"
     inkscape:window-height="1022"
     inkscape:window-width="1680"
     units="px"
     showgrid="false"
     inkscape:current-layer="layer1"
     inkscape:document-units="px"
     inkscape:cy="284.11431"
     inkscape:cx="-1286.7586"
     inkscape:zoom="0.25000001"
     inkscape:pageshadow="2"
     inkscape:pageopacity="0.0"
     borderopacity="1.0"
     bordercolor="#666666"
     pagecolor="#ffffff"
     id="base"
     inkscape:snap-bbox="false"
     inkscape:object-paths="true"
     inkscape:snap-nodes="true"
     showguides="true"
     inkscape:guide-bbox="true"
     inkscape:snap-object-midpoints="true"
     inkscape:snap-center="true"
     inkscape:snap-global="false"
     inkscape:snap-intersection-paths="true"
     inkscape:snap-smooth-nodes="true"
     inkscape:snap-midpoints="true">
    <inkscape:grid
       type="xygrid"
       id="grid4788" />
  </sodipodi:namedview>
  <defs
     id="defs4">
    <inkscape:path-effect
       effect="fillet_chamfer"
       id="path-effect2107"
       is_visible="true"
       lpeversion="1"
       satellites_param="F,0,1,1,0,1,0,1 @ F,0,1,1,0,1,0,1 @ F,0,1,1,0,1,0,1 @ F,0,0,1,0,0,0,1 @ F,0,1,1,0,1,0,1 @ F,0,1,1,0,1,0,1 @ F,0,1,1,0,1,0,1 @ F,0,1,1,0,1,0,1 @ F,0,0,1,0,0,0,1 @ F,0,1,1,0,1,0,1 @ F,0,1,1,0,1,0,1 @ F,0,0,1,0,0,0,1 @ F,0,1,1,0,1,0,1"
       unit="px"
       method="auto"
       mode="F"
       radius="1"
       chamfer_steps="1"
       flexible="false"
       use_knot_distance="true"
       apply_no_radius="true"
       apply_with_radius="true"
       only_selected="true"
       hide_knots="false" />
    <inkscape:path-effect
       effect="fillet_chamfer"
       id="path-effect4969"
       is_visible="true"
       lpeversion="1"
       satellites_param="F,0,1,1,0,1,0,1 @ F,0,1,1,0,1,0,1 @ F,0,1,1,0,1,0,1 @ F,0,0,1,0,0,0,1 @ F,0,1,1,0,1,0,1 @ F,0,1,1,0,1,0,1 @ F,0,1,1,0,1,0,1 @ F,0,1,1,0,1,0,1 @ F,0,0,1,0,0,0,1 @ F,0,1,1,0,1,0,1 @ F,0,1,1,0,1,0,1 @ F,0,0,1,0,0,0,1 @ F,0,1,1,0,1,0,1"
       unit="px"
       method="auto"
       mode="F"
       radius="1"
       chamfer_steps="1"
       flexible="false"
       use_knot_distance="true"
       apply_no_radius="true"
       apply_with_radius="true"
       only_selected="true"
       hide_knots="false" />
  </defs>
  <metadata
     id="metadata7">
    <rdf:RDF>
      <cc:Work
         rdf:about="">
        <dc:format>image/svg+xml</dc:format>
        <dc:type
           rdf:resource="http://purl.org/dc/dcmitype/StillImage" />
        <dc:title></dc:title>
      </cc:Work>
    </rdf:RDF>
  </metadata>
  <g
     transform="translate(0,-860.36216)"
     id="layer1"
     inkscape:groupmode="layer"
     inkscape:label="Calque 1">
    <rect
       style="fill:#99bdfe;fill-opacity:1;fill-rule:evenodd;stroke:none;stroke-opacity:1"
       width="153"
       height="153"
       x="19.5"
       y="879.86218"
       rx="10"
       id="rect4837" />
    <path
       id="path4848"
       style="fill:#fefefe;fill-opacity:1;stroke:none;stroke-width:0.256503;stroke-linecap:butt;stroke-linejoin:miter;stroke-miterlimit:4;stroke-dasharray:none;stroke-opacity:1;opacity:1"
       d="M 82.599609 104.00586 C 82.176377 104.41767 74.740918 111.62034 64.849609 118.52148 C 58.831055 123.0127 58.023752 126.50812 61.757812 130.24219 C 65.491872 133.97626 68.987305 133.16893 73.478516 127.15039 C 80.379645 117.25907 87.58233 109.82362 87.994141 109.40039 C 85.972012 107.84147 84.158706 106.02781 82.599609 104.00586 z "
       transform="translate(0,860.36216)" />
    <path
       style="color:#000000;font-style:normal;font-variant:normal;font-weight:normal;font-stretch:normal;font-size:medium;line-height:normal;font-family:sans-serif;font-variant-ligatures:normal;font-variant-position:normal;font-variant-caps:normal;font-variant-numeric:normal;font-variant-alternates:normal;font-variant-east-asian:normal;font-feature-settings:normal;font-variation-settings:normal;text-indent:0;text-align:start;text-decoration:none;text-decoration-line:none;text-decoration-style:solid;text-decoration-color:#000000;letter-spacing:normal;word-spacing:normal;text-transform:none;writing-mode:lr-tb;direction:ltr;text-orientation:mixed;dominant-baseline:auto;baseline-shift:baseline;text-anchor:start;white-space:normal;shape-padding:0;shape-margin:0;inline-size:0;clip-rule:nonzero;display:inline;overflow:visible;visibility:visible;isolation:auto;mix-blend-mode:normal;color-interpolation:sRGB;color-interpolation-filters:linearRGB;solid-color:#000000;solid-opacity:1;vector-effect:none;fill:#fefefe;fill-opacity:1;fill-rule:nonzero;stroke:none;stroke-width:5.05676;stroke-linecap:butt;stroke-linejoin:miter;stroke-miterlimit:4;stroke-dasharray:none;stroke-dashoffset:0;stroke-opacity:1;paint-order:markers fill stroke;color-rendering:auto;image-rendering:auto;shape-rendering:auto;text-rendering:auto;enable-background:accumulate;stop-color:#000000;stop-opacity:1;opacity:1"
       d="M 105.95703 919.86133 C 91.32721 919.86133 79.412107 931.77643 79.412109 946.40625 C 79.412113 961.03607 91.327214 972.94922 105.95703 972.94922 C 120.58685 972.94922 132.5 961.03606 132.5 946.40625 C 132.5 931.77643 120.58685 919.86133 105.95703 919.86133 z M 105.95703 924.91797 C 117.85397 924.91797 127.44336 934.50931 127.44336 946.40625 C 127.44336 958.30319 117.85397 967.89258 105.95703 967.89258 C 94.060089 967.89258 84.468753 958.30319 84.46875 946.40625 C 84.468748 934.5093 94.060086 924.91797 105.95703 924.91797 z "
       id="path4962" />
    <text
       xml:space="preserve"
       style="font-style:normal;font-variant:normal;font-weight:bold;font-stretch:normal;font-size:32.0041px;line-height:1.25;font-family:now, bolrd;-inkscape-font-specification:'now, bolrd Bold';letter-spacing:0px;word-spacing:0px;opacity:1;fill:#fefefe;fill-opacity:1;stroke-width:0.800103;"
       x="92.294304"
       y="954.40631"
       id="text2113"><tspan
         sodipodi:role="line"
         id="tspan2111"
         x="92.294304"
         y="954.40631"
         style="fill:#fefefe;fill-opacity:1;stroke-width:0.800103;">w</tspan></text>
  </g>
  <style
     type="text/css"
     id="style853">
	.st0{fill:#FFFFFF;}
</style>
</svg>

<svg xmlns="http://www.w3.org/2000/svg" id="svg2" width="192" height="192" version="1.1"><g id="layer1" transform="translate(0 -860.362)"><rect id="rect4837" width="153" height="153" x="19.5" y="879.862" rx="10" style="fill:#99bdfe;fill-opacity:1;fill-rule:evenodd;stroke:none;stroke-opacity:1"/><path id="path4848" d="M82.6 104.006c-.424.412-7.86 7.614-17.75 14.515-6.019 4.492-6.826 7.987-3.092 11.721 3.734 3.734 7.23 2.927 11.72-3.092 6.902-9.89 14.104-17.326 14.516-17.75a29.75 29.75 0 0 1-5.394-5.394z" style="fill:#fefefe;fill-opacity:1;stroke:none;stroke-width:.256503;stroke-linecap:butt;stroke-linejoin:miter;stroke-miterlimit:4;stroke-dasharray:none;stroke-opacity:1;opacity:1" transform="translate(0 860.362)"/><path id="path4962" d="M105.957 919.861c-14.63 0-26.545 11.915-26.545 26.545 0 14.63 11.915 26.543 26.545 26.543 14.63 0 26.543-11.913 26.543-26.543 0-14.63-11.913-26.545-26.543-26.545zm0 5.057c11.897 0 21.486 9.591 21.486 21.488a21.448 21.448 0 0 1-21.486 21.487c-11.897 0-21.488-9.59-21.488-21.487 0-11.897 9.591-21.488 21.488-21.488z" style="color:#000;font-style:normal;font-variant:normal;font-weight:400;font-stretch:normal;font-size:medium;line-height:normal;font-family:sans-serif;font-variant-ligatures:normal;font-variant-position:normal;font-variant-caps:normal;font-variant-numeric:normal;font-variant-alternates:normal;font-variant-east-asian:normal;font-feature-settings:normal;font-variation-settings:normal;text-indent:0;text-align:start;text-decoration:none;text-decoration-line:none;text-decoration-style:solid;text-decoration-color:#000;letter-spacing:normal;word-spacing:normal;text-transform:none;writing-mode:lr-tb;direction:ltr;text-orientation:mixed;dominant-baseline:auto;baseline-shift:baseline;text-anchor:start;white-space:normal;shape-padding:0;shape-margin:0;inline-size:0;clip-rule:nonzero;display:inline;overflow:visible;visibility:visible;isolation:auto;mix-blend-mode:normal;color-interpolation:sRGB;color-interpolation-filters:linearRGB;solid-color:#000;solid-opacity:1;vector-effect:none;fill:#fefefe;fill-opacity:1;fill-rule:nonzero;stroke:none;stroke-width:5.05676;stroke-linecap:butt;stroke-linejoin:miter;stroke-miterlimit:4;stroke-dasharray:none;stroke-dashoffset:0;stroke-opacity:1;paint-order:markers fill stroke;color-rendering:auto;image-rendering:auto;shape-rendering:auto;text-rendering:auto;enable-background:accumulate;stop-color:#000;stop-opacity:1;opacity:1"/><text xml:space="preserve" id="text2113" x="92.294" y="954.406" style="font-style:normal;font-variant:normal;font-weight:700;font-stretch:normal;font-size:32.0041px;line-height:1.25;font-family:now,bolrd;-inkscape-font-specification:&quot;now, bolrd Bold&quot;;letter-spacing:0;word-spacing:0;opacity:1;fill:#fefefe;fill-opacity:1;stroke-width:.800103"><tspan id="tspan2111" x="92.294" y="954.406" style="fill:#fefefe;fill-opacity:1;stroke-width:.800103">w</tspan></text></g><style id="style853" type="text/css">.st0{fill:#fff}</style></svg>
